icons/1_Primary/mail.com.svg

<svg width="1024" height="1024" fill="none" xmlns="http://www.w3.org/2000/svg"><g clip-path="url(#a)"><path d="M512 1024c282.77 0 512-229.23 512-512S794.77 0 512 0 0 229.23 0 512s229.23 512 512 512Z" fill="#728DBE"/><path d="M387.29 459.17c-28.16 0-51.03 22.87-51.03 53.46s22.73 53.32 50.74 53.32c14.44 0 27.16-7.29 35.16-18.3v15.72h16.15v-50.74c-.14-29.87-22.16-53.46-51.03-53.46h.01Zm0 91.19c-18.87 0-34.3-16.29-34.3-37.74 0-21.45 15.44-38.02 34.3-38.02s34.3 17.01 34.3 38.02-15.58 37.74-34.3 37.74Zm137.79-2.72v15.72c-23.87 2.72-40.31-11.29-40.31-37.02v-94.48h16.58v93.91c.14 17.87 11.15 22.44 23.73 21.87Zm-72.18-85.91h16.72v101.63H452.9V461.73Zm0-29.87h16.72v16.72H452.9v-16.72Zm111.92 80.76c0 20.58 15.44 37.02 34.16 37.02 13.44 0 23.87-6.86 29.45-18.01h18.01c-6.72 20.58-24.73 33.88-47.31 33.88-28.02 0-50.89-23.73-50.89-53.03s22.87-53.46 50.89-53.46c22.73 0 40.45 13.44 47.31 33.88h-18.01c-5.72-11.01-16.15-18.01-29.45-18.01-18.72.29-34.16 17.3-34.16 37.74v-.01Zm135.08-53.46c-28.73 0-51.03 24.01-51.03 53.6s22.3 53.03 51.03 53.03 51.03-23.87 51.03-53.03c.14-29.44-22.01-53.6-51.03-53.6Zm0 90.62c-18.72 0-34.16-16.58-34.16-36.88 0-20.3 15.44-37.74 34.16-37.74s34.3 17.01 34.3 37.74-15.29 36.88-34.3 36.88Zm-166.09-3.14h16.72v16.72h-16.72v-16.72Zm362.2-48.31v65.04h-16.72v-65.75c0-13.15-8.72-23.01-22.16-23.01s-22.16 9.86-22.16 23.01v65.75h-16.72v-65.75c0-13.15-8.72-23.01-22.16-23.01s-22.16 9.86-22.16 23.01v65.75h-16.72v-104.2h39.02c13.86 0 24.44 6.58 30.45 16.72 6.15-10.29 16.72-16.72 30.59-16.72 23.01 0 38.74 17.01 38.74 39.16Zm-617.77-66.47H128.01V562.5c0 11.72 8 21.44 18.72 24.3l181.39 45.31V481.88c.14-27.59-22.3-50.03-49.89-50.03l.01.01Zm-.14 130.64v-57.32c0-5.57-1.86-18.58-18.44-18.58-11.01 0-19.01 7.58-19.01 18.58v57.32h-25.16v-57.32c0-5.57-1.72-18.58-18.3-18.58-11.29 0-19.01 7.58-19.01 18.58v57.32h-25.16V462.02h44.17c13.29 0 24.16 5.29 31.16 13.86 7.43-8.58 18.44-13.86 31.16-13.86 27.44 0 43.6 18.15 43.6 43.74l.14 56.75h-25.16l.01-.01Z" fill="#fff"/></g><defs><clipPath id="a"><path fill="#fff" d="M0 0h1024v1024H0z"/></clipPath></defs></svg>

<svg width="1024" height="1024" viewBox="0 0 1024 1024" fill="none" xmlns="http://www.w3.org/2000/svg">
<g clip-path="url(#clip0_2_2724)">
<path d="M512 1024C794.77 1024 1024 794.77 1024 512C1024 229.23 794.77 0 512 0C229.23 0 0 229.23 0 512C0 794.77 229.23 1024 512 1024Z" fill="#728DBE"/>
<path d="M387.29 459.17C359.13 459.17 336.26 482.04 336.26 512.63C336.26 543.22 358.99 565.95 387 565.95C401.44 565.95 414.16 558.66 422.16 547.65V563.37H438.31V512.63C438.17 482.76 416.15 459.17 387.28 459.17H387.29ZM387.29 550.36C368.42 550.36 352.99 534.07 352.99 512.62C352.99 491.17 368.43 474.6 387.29 474.6C406.15 474.6 421.59 491.61 421.59 512.62C421.59 533.63 406.01 550.36 387.29 550.36ZM525.08 547.64V563.36C501.21 566.08 484.77 552.07 484.77 526.34V431.86H501.35V525.77C501.49 543.64 512.5 548.21 525.08 547.64ZM452.9 461.73H469.62V563.36H452.9V461.73ZM452.9 431.86H469.62V448.58H452.9V431.86ZM564.82 512.62C564.82 533.2 580.26 549.64 598.98 549.64C612.42 549.64 622.85 542.78 628.43 531.63H646.44C639.72 552.21 621.71 565.51 599.13 565.51C571.11 565.51 548.24 541.78 548.24 512.48C548.24 483.18 571.11 459.02 599.13 459.02C621.86 459.02 639.58 472.46 646.44 492.9H628.43C622.71 481.89 612.28 474.89 598.98 474.89C580.26 475.18 564.82 492.19 564.82 512.63V512.62ZM699.9 459.16C671.17 459.16 648.87 483.17 648.87 512.76C648.87 542.35 671.17 565.79 699.9 565.79C728.63 565.79 750.93 541.92 750.93 512.76C751.07 483.32 728.92 459.16 699.9 459.16ZM699.9 549.78C681.18 549.78 665.74 533.2 665.74 512.9C665.74 492.6 681.18 475.16 699.9 475.16C718.62 475.16 734.2 492.17 734.2 512.9C734.2 533.63 718.91 549.78 699.9 549.78ZM533.81 546.64H550.53V563.36H533.81V546.64ZM896.01 498.33V563.37H879.29V497.62C879.29 484.47 870.57 474.61 857.13 474.61C843.69 474.61 834.97 484.47 834.97 497.62V563.37H818.25V497.62C818.25 484.47 809.53 474.61 796.09 474.61C782.65 474.61 773.93 484.47 773.93 497.62V563.37H757.21V459.17H796.23C810.09 459.17 820.67 465.75 826.68 475.89C832.83 465.6 843.4 459.17 857.27 459.17C880.28 459.17 896.01 476.18 896.01 498.33ZM278.24 431.86H128.01V562.5C128.01 574.22 136.01 583.94 146.73 586.8L328.12 632.11V481.88C328.26 454.29 305.82 431.85 278.23 431.85L278.24 431.86ZM278.1 562.5V505.18C278.1 499.61 276.24 486.6 259.66 486.6C248.65 486.6 240.65 494.18 240.65 505.18V562.5H215.49V505.18C215.49 499.61 213.77 486.6 197.19 486.6C185.9 486.6 178.18 494.18 178.18 505.18V562.5H153.02V462.02H197.19C210.48 462.02 221.35 467.31 228.35 475.88C235.78 467.3 246.79 462.02 259.51 462.02C286.95 462.02 303.11 480.17 303.11 505.76L303.25 562.51H278.09L278.1 562.5Z" fill="white"/>
</g>
<defs>
<clipPath id="clip0_2_2724">
<rect width="1024" height="1024" fill="white"/>
</clipPath>
</defs>
</svg>
